X: 1
T: The Galloping Hound
R: jig
M: 6/8
L: 1/8
K: Gmaj
|:DGA ~B3|BcA ~B3|DGA BAG|FGA GFE|
DGA ~B3|BcA ~B3|~d3 def|1 gag fed:|2 gaf g2 a||
bag ~d3|BcA ~B3|ddd gdd|add bdd|
bag ~d3|BcA ~B3|d2 d def|gaf g2 a|
bag ~d3|BcA ~B3|ddd gdd|add bdd|
bag ~d3|BcA ~B3|DGA BAG|FAF G3||

